X: 14211
T: Will ye lend me your Loom Lass
%R: air, strathspey, reel
B: James Oswald "The Caledonian Pocket Companion" v.1 b.4 p.21 #1
S: https://ia800501.us.archive.org/18/items/caledonianpocket01rugg/caledonianpocket01rugg_bw.pdf
Z: 2020 John Chambers <jc:trillian.mit.edu>
N: Rests added to two pickup notes, to fix the rhythm.
M: C
L: 1/8
K: Em
B2 |\
{A}G2(FE) E2(Bd) | e4 (g<e)(d<B) | d4 (ed)(BA) | B3e (dB)(AB) |\
{A}G2(FE) E2(Bd) | e4 (g<e)(d<B) | g>aba (g<e)(d<B) |
A4 B2 :: zA |\
{A}G2E2 E3F | G3A {GA}B2(AG) | {GA}B2A2 A3d | (BAB)d (ede)g |\
G2(FE) E3F | (GF)(GA) TB2(AG) |
(AB)(ge) (dB)(AG) | A4 B2 :: zA |\
(GA)(GF) E2(Bd) | (eB)(gf) Te2(dB) | (dA)(fe) d2(BA) | B2e2 (dB)(AB) |\
G(B/A/) (GF) E2(GB) |
(eB)(gf) (ef)(ga) | b>age (d<B) TA>G | A4 B2 :: (ba) | (gf)(e^d) e3f | gBdg {ga}b2a>g |
(c'b)(a^g) a3e | (c'b)(a^g) (ac')(ba) |\
(gf)(e^d) (eB)(fB) | gGBd {ga}b2Ta>g | (ag)(ab) (g<e) (d<B) | A4 B2 :|


